icons/za.svg

<?xml version="1.0" ?>
<svg xmlns="http://www.w3.org/2000/svg" xmlns:ev="http://www.w3.org/2001/xml-events" xmlns:xlink="http://www.w3.org/1999/xlink" baseProfile="full" height="524px" version="1.1" viewBox="-1031.3210000000001 -247.95855858063226 12300.642 10735.93201732692" width="600px">
	<defs/>
	<path d="M 8143.0,9561.0 L 7961.0,9535.0 L 7932.0,9495.0 C 7895.0,9443.0 7834.0,9389.0 7776.0,9355.0 C 7739.0,9333.0 7705.0,9325.0 7614.0,9313.0 C 7461.0,9295.0 7425.0,9279.0 7363.0,9205.0 C 7336.0,9172.0 7306.0,9139.0 7297.0,9131.0 C 7287.0,9124.0 7280.0,9111.0 7280.0,9103.0 C 7280.0,9095.0 7269.0,9072.0 7255.0,9052.0 C 7241.0,9032.0 7230.0,9005.0 7230.0,8993.0 C 7230.0,8976.0 7221.0,8968.0 7188.0,8958.0 C 7160.0,8950.0 7141.0,8936.0 7129.0,8915.0 C 7115.0,8893.0 7095.0,8879.0 7047.0,8862.0 C 6985.0,8840.0 6982.0,8838.0 6974.0,8797.0 L 6965.0,8755.0 L 6891.0,8752.0 C 6820.0,8749.0 6815.0,8747.0 6766.0,8706.0 C 6738.0,8682.0 6697.0,8651.0 6675.0,8638.0 C 6620.0,8604.0 6579.0,8519.0 6540.0,8361.0 C 6523.0,8293.0 6497.0,8209.0 6483.0,8174.0 C 6460.0,8116.0 6455.0,8109.0 6420.0,8100.0 C 6379.0,8089.0 6341.0,8052.0 6283.0,7964.0 C 6239.0,7897.0 6169.0,7850.0 6114.0,7850.0 C 6081.0,7850.0 5930.0,7810.0 5868.0,7785.0 C 5847.0,7777.0 5845.0,7759.0 5861.0,7743.0 C 5870.0,7734.0 5869.0,7725.0 5858.0,7708.0 C 5849.0,7695.0 5840.0,7647.0 5835.0,7595.0 C 5830.0,7522.0 5824.0,7500.0 5806.0,7480.0 C 5792.0,7465.0 5779.0,7431.0 5772.0,7393.0 C 5761.0,7330.0 5728.0,7271.0 5661.0,7195.0 C 5618.0,7146.0 5524.0,7110.0 5438.0,7110.0 C 5405.0,7110.0 5322.0,7100.0 5254.0,7088.0 L 5131.0,7067.0 L 5024.0,7094.0 C 4919.0,7122.0 4850.0,7152.0 4850.0,7171.0 C 4850.0,7177.0 4834.0,7188.0 4814.0,7196.0 C 4787.0,7207.0 4759.0,7209.0 4696.0,7204.0 L 4613.0,7197.0 L 4586.0,7233.0 C 4569.0,7255.0 4505.0,7300.0 4413.0,7355.0 L 4267.0,7443.0 L 4171.0,7436.0 C 4078.0,7429.0 4074.0,7428.0 4022.0,7387.0 C 3976.0,7350.0 3963.0,7332.0 3924.0,7245.0 C 3883.0,7153.0 3880.0,7139.0 3880.0,7062.0 L 3880.0,6978.0 L 3790.0,6865.0 C 3716.0,6772.0 3688.0,6745.0 3630.0,6711.0 C 3555.0,6666.0 3519.0,6623.0 3476.0,6526.0 L 3451.0,6470.0 L 3399.0,6470.0 C 3363.0,6470.0 3334.0,6462.0 3300.0,6444.0 C 3254.0,6419.0 3252.0,6416.0 3245.0,6365.0 L 3239.0,6312.0 L 3021.0,6311.0 C 2856.0,6310.0 2790.0,6314.0 2754.0,6325.0 C 2707.0,6339.0 2704.0,6339.0 2667.0,6314.0 L 2628.0,6288.0 L 2604.0,6311.0 C 2583.0,6331.0 2581.0,6339.0 2586.0,6385.0 C 2591.0,6426.0 2588.0,6445.0 2571.0,6478.0 C 2547.0,6526.0 2548.0,6530.0 2617.0,6617.0 C 2636.0,6640.0 2660.0,6687.0 2671.0,6722.0 C 2690.0,6778.0 2691.0,6792.0 2680.0,6862.0 C 2673.0,6912.0 2651.0,6982.0 2619.0,7059.0 C 2592.0,7125.0 2570.0,7193.0 2570.0,7210.0 C 2570.0,7250.0 2557.0,7276.0 2510.0,7325.0 C 2489.0,7347.0 2460.0,7394.0 2446.0,7430.0 C 2386.0,7577.0 2337.0,7627.0 2234.0,7646.0 C 2207.0,7651.0 2179.0,7668.0 2143.0,7701.0 C 2115.0,7728.0 2089.0,7750.0 2087.0,7750.0 C 2085.0,7750.0 2084.0,7720.0 2086.0,7683.0 C 2128.0,6948.0 2143.0,6593.0 2155.0,6036.0 C 2163.0,5669.0 2170.0,5324.0 2170.0,5271.0 L 2170.0,5174.0 L 2100.0,5137.0 C 2061.0,5117.0 2020.0,5100.0 2010.0,5100.0 C 1999.0,5100.0 1970.0,5090.0 1946.0,5078.0 C 1908.0,5060.0 1900.0,5051.0 1895.0,5019.0 C 1886.0,4969.0 1871.0,4958.0 1791.0,4945.0 L 1725.0,4934.0 L 1725.0,4865.0 L 1725.0,4797.0 L 1685.0,4783.0 C 1647.0,4770.0 1642.0,4771.0 1590.0,4797.0 C 1510.0,4836.0 1388.0,4844.0 1305.0,4814.0 C 1272.0,4803.0 1208.0,4790.0 1162.0,4787.0 C 1080.0,4781.0 1077.0,4781.0 987.0,4822.0 C 890.0,4865.0 869.0,4869.0 808.0,4857.0 C 774.0,4850.0 770.0,4851.0 770.0,4869.0 C 770.0,4898.0 704.0,4917.0 646.0,4903.0 L 602.0,4893.0 L 596.0,4933.0 C 592.0,4954.0 583.0,4985.0 574.0,5002.0 C 562.0,5026.0 561.0,5038.0 571.0,5067.0 C 584.0,5107.0 579.0,5147.0 555.0,5204.0 L 539.0,5242.0 L 510.0,5215.0 C 485.0,5191.0 478.0,5189.0 465.0,5200.0 C 457.0,5207.0 450.0,5228.0 450.0,5247.0 C 450.0,5266.0 446.0,5289.0 440.0,5299.0 C 427.0,5324.0 370.0,5333.0 319.0,5320.0 C 278.0,5309.0 263.0,5296.0 206.0,5225.0 C 179.0,5191.0 178.0,5189.0 195.0,5164.0 C 210.0,5140.0 210.0,5136.0 194.0,5093.0 C 173.0,5038.0 106.0,4965.0 64.0,4950.0 C 48.0,4944.0 26.0,4926.0 16.0,4909.0 L -2.0,4879.0 L 32.0,4842.0 C 50.0,4822.0 76.0,4788.0 88.0,4768.0 C 101.0,4748.0 126.0,4722.0 144.0,4710.0 C 166.0,4697.0 180.0,4679.0 184.0,4659.0 C 187.0,4642.0 204.0,4612.0 220.0,4593.0 C 259.0,4549.0 336.0,4395.0 345.0,4344.0 C 349.0,4323.0 372.0,4274.0 395.0,4235.0 C 427.0,4182.0 440.0,4150.0 445.0,4105.0 C 453.0,4045.0 488.0,3943.0 537.0,3840.0 C 551.0,3810.0 569.0,3763.0 576.0,3737.0 C 583.0,3710.0 606.0,3665.0 627.0,3637.0 C 683.0,3563.0 724.0,3485.0 749.0,3408.0 C 766.0,3356.0 794.0,3310.0 872.0,3208.0 C 927.0,3135.0 987.0,3059.0 1005.0,3040.0 C 1023.0,3021.0 1059.0,2968.0 1084.0,2922.0 C 1110.0,2876.0 1144.0,2827.0 1161.0,2812.0 C 1199.0,2777.0 1256.0,2636.0 1281.0,2516.0 C 1293.0,2456.0 1300.0,2383.0 1300.0,2303.0 C 1300.0,2157.0 1287.0,2114.0 1229.0,2071.0 C 1194.0,2046.0 1185.0,2043.0 1152.0,2051.0 C 1057.0,2074.0 1061.0,2075.0 1049.0,2044.0 C 1043.0,2028.0 1041.0,1997.0 1045.0,1975.0 C 1048.0,1953.0 1053.0,1911.0 1056.0,1882.0 C 1059.0,1853.0 1065.0,1830.0 1068.0,1832.0 C 1118.0,1858.0 1131.0,1862.0 1144.0,1857.0 C 1162.0,1850.0 1210.0,1777.0 1210.0,1756.0 C 1210.0,1732.0 1167.0,1752.0 1152.0,1783.0 C 1144.0,1800.0 1131.0,1810.0 1118.0,1810.0 L 1097.0,1810.0 L 1117.0,1788.0 C 1129.0,1775.0 1151.0,1744.0 1167.0,1719.0 C 1203.0,1659.0 1278.0,1567.0 1299.0,1556.0 C 1326.0,1542.0 1340.0,1518.0 1340.0,1485.0 C 1340.0,1464.0 1349.0,1446.0 1366.0,1429.0 C 1401.0,1397.0 1430.0,1334.0 1430.0,1289.0 C 1430.0,1257.0 1426.0,1252.0 1398.0,1244.0 C 1372.0,1236.0 1364.0,1227.0 1357.0,1197.0 C 1350.0,1167.0 1351.0,1155.0 1364.0,1141.0 C 1379.0,1125.0 1379.0,1122.0 1365.0,1110.0 C 1357.0,1103.0 1350.0,1090.0 1350.0,1081.0 C 1350.0,1059.0 1400.0,982.0 1434.0,951.0 L 1460.0,927.0 L 1460.0,991.0 C 1460.0,1083.0 1475.0,1130.0 1504.0,1130.0 C 1517.0,1130.0 1547.0,1133.0 1571.0,1136.0 C 1615.0,1142.0 1615.0,1141.0 1638.0,1098.0 C 1654.0,1066.0 1660.0,1038.0 1660.0,987.0 L 1660.0,919.0 L 1690.0,935.0 C 1731.0,956.0 1786.0,954.0 1810.0,930.0 C 1822.0,918.0 1843.0,910.0 1865.0,910.0 C 1894.0,910.0 1980.0,868.0 1980.0,854.0 C 1980.0,852.0 1971.0,836.0 1960.0,818.0 C 1930.0,768.0 1933.0,759.0 1983.0,766.0 C 2021.0,772.0 2030.0,769.0 2069.0,736.0 C 2133.0,683.0 2148.0,676.0 2225.0,669.0 C 2264.0,665.0 2316.0,659.0 2342.0,655.0 C 2385.0,648.0 2390.0,649.0 2390.0,667.0 C 2390.0,694.0 2429.0,728.0 2465.0,732.0 C 2486.0,734.0 2499.0,743.0 2508.0,763.0 C 2515.0,778.0 2538.0,799.0 2559.0,810.0 C 2584.0,822.0 2600.0,839.0 2604.0,855.0 C 2609.0,874.0 2624.0,887.0 2657.0,902.0 C 2703.0,922.0 2743.0,923.0 2839.0,904.0 C 2871.0,897.0 2872.0,898.0 2860.0,919.0 C 2831.0,973.0 2877.0,983.0 3029.0,953.0 C 3111.0,938.0 3118.0,938.0 3153.0,955.0 C 3181.0,968.0 3219.0,973.0 3305.0,974.0 C 3435.0,976.0 3472.0,991.0 3478.0,1046.0 C 3480.0,1065.0 3500.0,1094.0 3537.0,1131.0 L 3592.0,1187.0 L 3683.0,1199.0 C 3734.0,1206.0 3796.0,1221.0 3822.0,1232.0 C 3874.0,1255.0 3921.0,1252.0 4017.0,1219.0 C 4059.0,1205.0 4100.0,1200.0 4185.0,1200.0 C 4286.0,1200.0 4299.0,1202.0 4316.0,1221.0 C 4341.0,1249.0 4403.0,1280.0 4433.0,1280.0 C 4467.0,1280.0 4747.0,1223.0 4799.0,1205.0 C 4824.0,1197.0 4861.0,1190.0 4883.0,1190.0 C 4907.0,1190.0 4934.0,1182.0 4953.0,1168.0 C 4974.0,1153.0 5009.0,1142.0 5050.0,1137.0 C 5086.0,1133.0 5134.0,1127.0 5158.0,1124.0 C 5198.0,1118.0 5200.0,1119.0 5200.0,1143.0 C 5200.0,1156.0 5207.0,1173.0 5215.0,1180.0 C 5223.0,1187.0 5235.0,1209.0 5241.0,1230.0 C 5248.0,1251.0 5262.0,1272.0 5274.0,1278.0 C 5299.0,1289.0 5381.0,1279.0 5459.0,1256.0 C 5489.0,1247.0 5525.0,1240.0 5540.0,1240.0 C 5554.0,1240.0 5575.0,1233.0 5587.0,1225.0 C 5607.0,1211.0 5613.0,1211.0 5650.0,1226.0 L 5690.0,1242.0 L 5669.0,1277.0 C 5638.0,1327.0 5651.0,1373.0 5707.0,1416.0 C 5766.0,1461.0 5824.0,1466.0 5973.0,1441.0 C 6133.0,1413.0 6152.0,1414.0 6224.0,1454.0 C 6258.0,1473.0 6311.0,1495.0 6343.0,1503.0 C 6378.0,1512.0 6430.0,1538.0 6475.0,1569.0 C 6516.0,1597.0 6569.0,1629.0 6592.0,1641.0 C 6616.0,1653.0 6658.0,1682.0 6685.0,1705.0 C 6713.0,1728.0 6759.0,1760.0 6788.0,1775.0 C 6817.0,1791.0 6859.0,1819.0 6882.0,1839.0 C 6905.0,1859.0 6958.0,1898.0 6999.0,1925.0 C 7046.0,1956.0 7090.0,1995.0 7114.0,2027.0 C 7142.0,2065.0 7169.0,2088.0 7209.0,2107.0 C 7344.0,2173.0 7504.0,2308.0 7622.0,2456.0 C 7654.0,2496.0 7690.0,2536.0 7702.0,2546.0 C 7715.0,2557.0 7736.0,2581.0 7750.0,2600.0 C 7797.0,2668.0 7994.0,2871.0 8019.0,2877.0 C 8033.0,2880.0 8071.0,2908.0 8104.0,2939.0 C 8138.0,2970.0 8187.0,3006.0 8214.0,3019.0 C 8251.0,3037.0 8283.0,3068.0 8349.0,3148.0 C 8396.0,3206.0 8459.0,3280.0 8488.0,3313.0 C 8517.0,3346.0 8554.0,3401.0 8570.0,3436.0 C 8587.0,3471.0 8647.0,3561.0 8704.0,3637.0 C 8761.0,3713.0 8824.0,3807.0 8843.0,3846.0 C 8863.0,3886.0 8890.0,3926.0 8902.0,3936.0 C 8937.0,3964.0 8968.0,4013.0 8996.0,4081.0 C 9010.0,4115.0 9039.0,4168.0 9060.0,4199.0 C 9081.0,4230.0 9118.0,4287.0 9142.0,4325.0 C 9187.0,4399.0 9433.0,4661.0 9482.0,4686.0 C 9497.0,4694.0 9525.0,4700.0 9545.0,4700.0 C 9600.0,4700.0 9625.0,4718.0 9756.0,4852.0 C 9863.0,4961.0 9879.0,4982.0 9900.0,5040.0 C 9913.0,5076.0 9941.0,5135.0 9962.0,5171.0 C 9992.0,5222.0 10008.0,5270.0 10035.0,5386.0 C 10054.0,5468.0 10070.0,5547.0 10070.0,5563.0 C 10070.0,5578.0 10090.0,5630.0 10115.0,5679.0 C 10179.0,5807.0 10240.0,5998.0 10240.0,6070.0 L 10240.0,6127.0 L 10068.0,6134.0 C 9973.0,6138.0 9865.0,6146.0 9827.0,6151.0 C 9696.0,6171.0 9670.0,6144.0 9670.0,5990.0 L 9670.0,5903.0 L 9627.0,5886.0 C 9569.0,5864.0 9404.0,5872.0 9303.0,5902.0 C 9236.0,5922.0 9224.0,5930.0 9156.0,6000.0 C 9085.0,6073.0 9082.0,6078.0 9075.0,6135.0 C 9066.0,6218.0 9066.0,6218.0 9023.0,6222.0 L 8985.0,6225.0 L 8984.0,6315.0 C 8983.0,6365.0 8978.0,6429.0 8973.0,6458.0 L 8963.0,6511.0 L 9037.0,6577.0 C 9079.0,6615.0 9118.0,6659.0 9126.0,6679.0 C 9134.0,6699.0 9149.0,6724.0 9159.0,6735.0 C 9169.0,6746.0 9180.0,6772.0 9183.0,6794.0 C 9186.0,6815.0 9190.0,6833.0 9192.0,6835.0 C 9194.0,6836.0 9221.0,6857.0 9252.0,6883.0 C 9292.0,6915.0 9325.0,6932.0 9362.0,6940.0 C 9413.0,6952.0 9419.0,6951.0 9468.0,6926.0 C 9496.0,6912.0 9530.0,6886.0 9542.0,6869.0 C 9570.0,6831.0 9612.0,6805.0 9684.0,6780.0 L 9740.0,6761.0 L 9740.0,6860.0 C 9740.0,6958.0 9740.0,6959.0 9770.0,6980.0 C 9806.0,7006.0 9807.0,7011.0 9775.0,7058.0 C 9759.0,7082.0 9754.0,7098.0 9760.0,7104.0 C 9766.0,7110.0 9770.0,7128.0 9770.0,7146.0 C 9770.0,7164.0 9779.0,7207.0 9790.0,7242.0 C 9808.0,7296.0 9812.0,7347.0 9820.0,7614.0 L 9829.0,7923.0 L 9794.0,7991.0 C 9760.0,8056.0 9759.0,8060.0 9769.0,8116.0 C 9785.0,8199.0 9784.0,8202.0 9736.0,8237.0 C 9686.0,8274.0 9660.0,8333.0 9660.0,8410.0 C 9660.0,8457.0 9630.0,8513.0 9587.0,8549.0 C 9565.0,8567.0 9565.0,8646.0 9586.0,8700.0 C 9602.0,8739.0 9601.0,8743.0 9581.0,8796.0 C 9570.0,8827.0 9560.0,8870.0 9560.0,8892.0 C 9560.0,8929.0 9511.0,9120.0 9476.0,9219.0 C 9467.0,9243.0 9460.0,9281.0 9460.0,9304.0 C 9460.0,9402.0 9386.0,9423.0 9025.0,9425.0 C 8808.0,9426.0 8793.0,9427.0 8752.0,9448.0 C 8604.0,9526.0 8420.0,9591.0 8355.0,9589.0 C 8339.0,9588.0 8243.0,9576.0 8143.0,9561.0" fill="pink"/>
</svg>

<?xml version="1.0" standalone="no"?>
<!DOCTYPE svg PUBLIC "-//W3C//DTD SVG 20010904//EN"
 "http://www.w3.org/TR/2001/REC-SVG-20010904/DTD/svg10.dtd">
<svg version="1.0" xmlns="http://www.w3.org/2000/svg"
 width="1024.000000pt" height="1024.000000pt" viewBox="0 0 1024.000000 1024.000000"
 preserveAspectRatio="xMidYMid meet">
<metadata>
Created by potrace 1.10, written by Peter Selinger 2001-2011
</metadata>
<g transform="translate(0.000000,1024.000000) scale(0.100000,-0.100000)"
fill="#000000" stroke="none">
<path d="M8143 9561 l-182 -26 -29 -40 c-37 -52 -98 -106 -156 -140 -37 -22
-71 -30 -162 -42 -153 -18 -189 -34 -251 -108 -27 -33 -57 -66 -66 -74 -10 -7
-17 -20 -17 -28 0 -8 -11 -31 -25 -51 -14 -20 -25 -47 -25 -59 0 -17 -9 -25
-42 -35 -28 -8 -47 -22 -59 -43 -14 -22 -34 -36 -82 -53 -62 -22 -65 -24 -73
-65 l-9 -42 -74 -3 c-71 -3 -76 -5 -125 -46 -28 -24 -69 -55 -91 -68 -55 -34
-96 -119 -135 -277 -17 -68 -43 -152 -57 -187 -23 -58 -28 -65 -63 -74 -41
-11 -79 -48 -137 -136 -44 -67 -114 -114 -169 -114 -33 0 -184 -40 -246 -65
-21 -8 -23 -26 -7 -42 9 -9 8 -18 -3 -35 -9 -13 -18 -61 -23 -113 -5 -73 -11
-95 -29 -115 -14 -15 -27 -49 -34 -87 -11 -63 -44 -122 -111 -198 -43 -49
-137 -85 -223 -85 -33 0 -116 -10 -184 -22 l-123 -21 -107 27 c-105 28 -174
58 -174 77 0 6 -16 17 -36 25 -27 11 -55 13 -118 8 l-83 -7 -27 36 c-17 22
-81 67 -173 122 l-146 88 -96 -7 c-93 -7 -97 -8 -149 -49 -46 -37 -59 -55 -98
-142 -41 -92 -44 -106 -44 -183 l0 -84 -90 -113 c-74 -93 -102 -120 -160 -154
-75 -45 -111 -88 -154 -185 l-25 -56 -52 0 c-36 0 -65 -8 -99 -26 -46 -25 -48
-28 -55 -79 l-6 -53 -218 -1 c-165 -1 -231 3 -267 14 -47 14 -50 14 -87 -11
l-39 -26 -24 23 c-21 20 -23 28 -18 74 5 41 2 60 -15 93 -24 48 -23 52 46 139
19 23 43 70 54 105 19 56 20 70 9 140 -7 50 -29 120 -61 197 -27 66 -49 134
-49 151 0 40 -13 66 -60 115 -21 22 -50 69 -64 105 -60 147 -109 197 -212 216
-27 5 -55 22 -91 55 -28 27 -54 49 -56 49 -2 0 -3 -30 -1 -67 42 -735 57
-1090 69 -1647 8 -367 15 -712 15 -765 l0 -97 -70 -37 c-39 -20 -80 -37 -90
-37 -11 0 -40 -10 -64 -22 -38 -18 -46 -27 -51 -59 -9 -50 -24 -61 -104 -74
l-66 -11 0 -69 0 -68 -40 -14 c-38 -13 -43 -12 -95 14 -80 39 -202 47 -285 17
-33 -11 -97 -24 -143 -27 -82 -6 -85 -6 -175 35 -97 43 -118 47 -179 35 -34
-7 -38 -6 -38 12 0 29 -66 48 -124 34 l-44 -10 -6 40 c-4 21 -13 52 -22 69
-12 24 -13 36 -3 65 13 40 8 80 -16 137 l-16 38 -29 -27 c-25 -24 -32 -26 -45
-15 -8 7 -15 28 -15 47 0 19 -4 42 -10 52 -13 25 -70 34 -121 21 -41 -11 -56
-24 -113 -95 -27 -34 -28 -36 -11 -61 15 -24 15 -28 -1 -71 -21 -55 -88 -128
-130 -143 -16 -6 -38 -24 -48 -41 l-18 -30 34 -37 c18 -20 44 -54 56 -74 13
-20 38 -46 56 -58 22 -13 36 -31 40 -51 3 -17 20 -47 36 -66 39 -44 116 -198
125 -249 4 -21 27 -70 50 -109 32 -53 45 -85 50 -130 8 -60 43 -162 92 -265
14 -30 32 -77 39 -103 7 -27 30 -72 51 -100 56 -74 97 -152 122 -229 17 -52
45 -98 123 -200 55 -73 115 -149 133 -168 18 -19 54 -72 79 -118 26 -46 60
-95 77 -110 38 -35 95 -176 120 -296 12 -60 19 -133 19 -213 0 -146 -13 -189
-71 -232 -35 -25 -44 -28 -77 -20 -95 23 -91 24 -103 -7 -6 -16 -8 -47 -4 -69
3 -22 8 -64 11 -93 3 -29 9 -52 12 -50 50 26 63 30 76 25 18 -7 66 -80 66
-101 0 -24 -43 -4 -58 27 -8 17 -21 27 -34 27 l-21 0 20 -22 c12 -13 34 -44
50 -69 36 -60 111 -152 132 -163 27 -14 41 -38 41 -71 0 -21 9 -39 26 -56 35
-32 64 -95 64 -140 0 -32 -4 -37 -32 -45 -26 -8 -34 -17 -41 -47 -7 -30 -6
-42 7 -56 15 -16 15 -19 1 -31 -8 -7 -15 -20 -15 -29 0 -22 50 -99 84 -130
l26 -24 0 64 c0 92 15 139 44 139 13 0 43 3 67 6 44 6 44 5 67 -38 16 -32 22
-60 22 -111 l0 -68 30 16 c41 21 96 19 120 -5 12 -12 33 -20 55 -20 29 0 115
-42 115 -56 0 -2 -9 -18 -20 -36 -30 -50 -27 -59 23 -52 38 6 47 3 86 -30 64
-53 79 -60 156 -67 39 -4 91 -10 117 -14 43 -7 48 -6 48 12 0 27 39 61 75 65
21 2 34 11 43 31 7 15 30 36 51 47 25 12 41 29 45 45 5 19 20 32 53 47 46 20
86 21 182 2 32 -7 33 -6 21 15 -29 54 17 64 169 34 82 -15 89 -15 124 2 28 13
66 18 152 19 130 2 167 17 173 72 2 19 22 48 59 85 l55 56 91 12 c51 7 113 22
139 33 52 23 99 20 195 -13 42 -14 83 -19 168 -19 101 0 114 2 131 21 25 28
87 59 117 59 34 0 314 -57 366 -75 25 -8 62 -15 84 -15 24 0 51 -8 70 -22 21
-15 56 -26 97 -31 36 -4 84 -10 108 -13 40 -6 42 -5 42 19 0 13 7 30 15 37 8
7 20 29 26 50 7 21 21 42 33 48 25 11 107 1 185 -22 30 -9 66 -16 81 -16 14 0
35 -7 47 -15 20 -14 26 -14 63 1 l40 16 -21 35 c-31 50 -18 96 38 139 59 45
117 50 266 25 160 -28 179 -27 251 13 34 19 87 41 119 49 35 9 87 35 132 66
41 28 94 60 117 72 24 12 66 41 93 64 28 23 74 55 103 70 29 16 71 44 94 64
23 20 76 59 117 86 47 31 91 70 115 102 28 38 55 61 95 80 135 66 295 201 413
349 32 40 68 80 80 90 13 11 34 35 48 54 47 68 244 271 269 277 14 3 52 31 85
62 34 31 83 67 110 80 37 18 69 49 135 129 47 58 110 132 139 165 29 33 66 88
82 123 17 35 77 125 134 201 57 76 120 170 139 209 20 40 47 80 59 90 35 28
66 77 94 145 14 34 43 87 64 118 21 31 58 88 82 126 45 74 291 336 340 361 15
8 43 14 63 14 55 0 80 18 211 152 107 109 123 130 144 188 13 36 41 95 62 131
30 51 46 99 73 215 19 82 35 161 35 177 0 15 20 67 45 116 64 128 125 319 125
391 l0 57 -172 7 c-95 4 -203 12 -241 17 -131 20 -157 -7 -157 -161 l0 -87
-43 -17 c-58 -22 -223 -14 -324 16 -67 20 -79 28 -147 98 -71 73 -74 78 -81
135 -9 83 -9 83 -52 87 l-38 3 -1 90 c-1 50 -6 114 -11 143 l-10 53 74 66 c42
38 81 82 89 102 8 20 23 45 33 56 10 11 21 37 24 59 3 21 7 39 9 41 2 1 29 22
60 48 40 32 73 49 110 57 51 12 57 11 106 -14 28 -14 62 -40 74 -57 28 -38 70
-64 142 -89 l56 -19 0 99 c0 98 0 99 30 120 36 26 37 31 5 78 -16 24 -21 40
-15 46 6 6 10 24 10 42 0 18 9 61 20 96 18 54 22 105 30 372 l9 309 -35 68
c-34 65 -35 69 -25 125 16 83 15 86 -33 121 -50 37 -76 96 -76 173 0 47 -30
103 -73 139 -22 18 -22 97 -1 151 16 39 15 43 -5 96 -11 31 -21 74 -21 96 0
37 -49 228 -84 327 -9 24 -16 62 -16 85 0 98 -74 119 -435 121 -217 1 -232 2
-273 23 -148 78 -332 143 -397 141 -16 -1 -112 -13 -212 -28z"/>
</g>
</svg>
